assets/img/icons_24_ic_recommend_off_on.svg

<?xml version="1.0" encoding="UTF-8"?>
<svg width="24px" height="68px" viewBox="0 0 24 68" version="1.1" xmlns="http://www.w3.org/2000/svg" xmlns:xlink="http://www.w3.org/1999/xlink">
    <title>3D0D40BC-105E-41BD-890D-58A3B890B8F9</title>
    <defs>
        <rect id="path-1" x="0" y="0" width="24" height="24"></rect>
        <rect id="path-3" x="0" y="0" width="24" height="24"></rect>
    </defs>
    <g id="💎-Components" stroke="none" stroke-width="1" fill="none" fill-rule="evenodd">
        <g id="Icons/Grid/Keep" transform="translate(-1100.000000, -1455.000000)">
            <g id="24dp" transform="translate(62.000000, 1263.000000)">
                <g id="Black" transform="translate(954.000000, 0.000000)">
                    <g id="Icon-/-24-/-Black" transform="translate(40.000000, 40.000000)">
                        <g id="Bottom-menu" transform="translate(0.000000, 152.000000)">
                            <g id="Icons-/-24-/-ic_recommend_off_on" transform="translate(44.000000, 0.000000)">
                                <g id="Icons-/-24-/-ic_recommend_secondary" transform="translate(0.000000, 44.000000)">
                                    <mask id="mask-2" fill="white">
                                        <use xlink:href="#path-1"></use>
                                    </mask>
                                    <g id="Icons-/-24-/-ic_recommend_secondary-(Background/Mask)"></g>
                                    <path d="M7.25,9.75585938 L7.25,20.7558594 C7.25,21.0320017 7.02614237,21.2558594 6.75,21.2558594 L1.75,21.2558594 C1.47385763,21.2558594 1.25,21.0320017 1.25,20.7558594 L1.25,9.75585938 C1.25,9.479717 1.47385763,9.25585938 1.75,9.25585938 L6.75,9.25585938 C7.02614237,9.25585938 7.25,9.479717 7.25,9.75585938 Z" id="Rectangle-4916" fill="#38B1AD" fill-rule="nonzero" mask="url(#mask-2)"></path>
                                    <path d="M15.1375203,3.5157153 L14.0009465,4.89295614 C13.6674976,5.29701209 13.3028135,5.67423964 12.9102604,6.02115679 L9.58779163,8.9573755 C9.37300504,9.1471923 9.25,9.42005313 9.25,9.70669524 L9.25,20.2558975 L9.25,20.2558975 C9.25,20.8081818 9.69771498,21.2558975 10.25,21.2558975 L19.4415846,21.2558975 C19.9131222,21.2558975 20.3205862,20.9264965 20.4193869,20.4654255 L22.6490164,10.0604877 C22.9405775,8.69987011 21.7880926,7.46474171 20.4105721,7.66153002 L16.1335833,8.27252841 C15.9968998,8.29205462 15.8702668,8.19707988 15.8507406,8.06039637 C15.8421835,8.00049674 15.855641,7.93952632 15.8886171,7.88879396 L17.570425,5.30139661 L17.570425,5.30139661 C17.9649963,4.69436383 17.8736658,3.89278215 17.3526525,3.39006948 C16.7187448,2.77842891 15.6981978,2.83631605 15.1375203,3.5157153 Z" id="Union" fill="#9BD8D6" fill-rule="nonzero" mask="url(#mask-2)"></path>
                                </g>
                                <g id="Icons-/-24-/-ic_recommend_grey04">
                                    <mask id="mask-4" fill="white">
                                        <use xlink:href="#path-3"></use>
                                    </mask>
                                    <g id="Icons-/-24-/-ic_recommend_grey04-(Background/Mask)"></g>
                                    <path d="M7.25,9.75585938 L7.25,20.7558594 C7.25,21.0320017 7.02614237,21.2558594 6.75,21.2558594 L1.75,21.2558594 C1.47385763,21.2558594 1.25,21.0320017 1.25,20.7558594 L1.25,9.75585938 C1.25,9.479717 1.47385763,9.25585938 1.75,9.25585938 L6.75,9.25585938 C7.02614237,9.25585938 7.25,9.479717 7.25,9.75585938 Z" id="Rectangle-4916" fill="#A4A6AA" fill-rule="nonzero" mask="url(#mask-4)"></path>
                                    <path d="M15.1375203,3.5157153 L14.0009465,4.89295614 C13.6674976,5.29701209 13.3028135,5.67423964 12.9102604,6.02115679 L9.58779163,8.9573755 C9.37300504,9.1471923 9.25,9.42005313 9.25,9.70669524 L9.25,20.2558975 L9.25,20.2558975 C9.25,20.8081818 9.69771498,21.2558975 10.25,21.2558975 L19.4415846,21.2558975 C19.9131222,21.2558975 20.3205862,20.9264965 20.4193869,20.4654255 L22.6490164,10.0604877 C22.9405775,8.69987011 21.7880926,7.46474171 20.4105721,7.66153002 L16.1335833,8.27252841 C15.9968998,8.29205462 15.8702668,8.19707988 15.8507406,8.06039637 C15.8421835,8.00049674 15.855641,7.93952632 15.8886171,7.88879396 L17.570425,5.30139661 L17.570425,5.30139661 C17.9649963,4.69436383 17.8736658,3.89278215 17.3526525,3.39006948 C16.7187448,2.77842891 15.6981978,2.83631605 15.1375203,3.5157153 Z" id="Union" fill="#A4A6AA" fill-rule="nonzero" mask="url(#mask-4)"></path>
                                </g>
                            </g>
                        </g>
                    </g>
                </g>
            </g>
        </g>
    </g>
</svg>

<svg width="24" height="68" viewBox="0 0 24 68" xmlns="http://www.w3.org/2000/svg" xmlns:xlink="http://www.w3.org/1999/xlink">
    <defs>
        <path id="91ugie79ia" d="M0 0h24v24H0z"/>
        <path id="3t5ohyv70c" d="M0 0h24v24H0z"/>
    </defs>
    <g fill="none" fill-rule="evenodd">
        <g>
            <mask id="c23mcsuhjb" fill="#fff">
                <use xlink:href="#91ugie79ia"/>
            </mask>
            <path d="M7.25 9.756v11a.5.5 0 0 1-.5.5h-5a.5.5 0 0 1-.5-.5v-11a.5.5 0 0 1 .5-.5h5a.5.5 0 0 1 .5.5z" fill="#CBCDCF" fill-rule="nonzero" mask="url(#c23mcsuhjb)"/>
            <path d="M15.138 3.516 14 4.893a10 10 0 0 1-1.09 1.128L9.587 8.957a1 1 0 0 0-.338.75v10.549a1 1 0 0 0 1 1h9.192a1 1 0 0 0 .977-.79l2.23-10.406a2 2 0 0 0-2.238-2.398l-4.277.61a.25.25 0 0 1-.245-.383L17.57 5.3a1.511 1.511 0 0 0-2.432-1.785z" fill="#E3E4E5" fill-rule="nonzero" mask="url(#c23mcsuhjb)"/>
        </g>
        <g transform="translate(0 44)">
            <mask id="4mygqdbe4d" fill="#fff">
                <use xlink:href="#3t5ohyv70c"/>
            </mask>
            <path d="M7.25 9.756v11a.5.5 0 0 1-.5.5h-5a.5.5 0 0 1-.5-.5v-11a.5.5 0 0 1 .5-.5h5a.5.5 0 0 1 .5.5z" fill="#38B1AD" fill-rule="nonzero" mask="url(#4mygqdbe4d)"/>
            <path d="M15.138 3.516 14 4.893a10 10 0 0 1-1.09 1.128L9.587 8.957a1 1 0 0 0-.338.75v10.549a1 1 0 0 0 1 1h9.192a1 1 0 0 0 .977-.79l2.23-10.406a2 2 0 0 0-2.238-2.398l-4.277.61a.25.25 0 0 1-.245-.383L17.57 5.3a1.511 1.511 0 0 0-2.432-1.785z" fill="#9BD8D6" fill-rule="nonzero" mask="url(#4mygqdbe4d)"/>
        </g>
    </g>
</svg>
